X:2
T:Br\"and-Pers vals (for H\orksvalsen)
R:waltz
N:
B:
D:
O:Sweden
Z: John Chambers <jc@trillian.mit.edu>
M:3/4
L:1/4
K:G
|: B,/C/ \
| "G"D>CB, \
| D2G \
| B3- \
| BAG \
| "C"E>DC \
| E2G \
| "Am"c3- \
| cBA |
| "D7"F>ED \
| F2A \
| f3 \
| e3 \
| d>ed \
|[1 ced \
| "G"B>AG \
| D>CB,/C/ \
:|[2 cBA \
| "G"G>AG/F/ \
| "fine"G2 ||
|: [K:D] F/G/ \
| "D"A>AA \
| AB/c/d/e/ \
| f>ff \
| fgf \
| "A7"e>ee \
| efe \
| "D"dcB \
| "(A7)"A>GF/G/ |
| "D"A>AA \
| AB/c/d/e/ \
| f>ff \
| fba \
| "A7"g>fe \
| A/g/fe/c/ \
| "D"d>dd \
| d2 :|
